assets/icons/edit.svg

<svg width="24" height="24" viewBox="0 0 24 24" fill="none" xmlns="http://www.w3.org/2000/svg">
<path d="M12 2.75C5.063 2.75 2.75 5.063 2.75 12C2.75 18.937 5.063 21.25 12 21.25C18.937 21.25 21.25 18.937 21.25 12" stroke="#130F26" stroke-width="1.5" stroke-linecap="round" stroke-linejoin="round"/>
<path fill-rule="evenodd" clip-rule="evenodd" d="M19.5285 4.30461C18.5355 3.42561 17.0185 3.51761 16.1395 4.51061C16.1395 4.51061 11.7705 9.44561 10.2555 11.1586C8.73853 12.8706 9.85053 15.2356 9.85053 15.2356C9.85053 15.2356 12.3545 16.0286 13.8485 14.3406C15.3435 12.6526 19.7345 7.69361 19.7345 7.69361C20.6135 6.70061 20.5205 5.18361 19.5285 4.30461V4.30461Z" stroke="#130F26" stroke-width="1.5" stroke-linecap="round" stroke-linejoin="round"/>
<path d="M15.0088 5.80078L18.6038 8.98378" stroke="#130F26" stroke-width="1.5" stroke-linecap="round" stroke-linejoin="round"/>
</svg>

<svg width="24" height="24" fill="none" xmlns="http://www.w3.org/2000/svg"><path d="M12 2.75c-6.937 0-9.25 2.313-9.25 9.25 0 6.937 2.313 9.25 9.25 9.25 6.937 0 9.25-2.313 9.25-9.25" stroke="#130F26" stroke-width="1.5" stroke-linecap="round" stroke-linejoin="round"/><path clip-rule="evenodd" d="M19.529 4.305a2.4 2.4 0 0 0-3.39.206l-5.883 6.648c-1.517 1.712-.405 4.077-.405 4.077s2.503.793 3.997-.895l5.886-6.647a2.401 2.401 0 0 0-.206-3.39v0z" stroke="#130F26" stroke-width="1.5" stroke-linecap="round" stroke-linejoin="round"/><path d="m15.009 5.8 3.595 3.184" stroke="#130F26" stroke-width="1.5" stroke-linecap="round" stroke-linejoin="round"/></svg>
